X:14365
T:Roast Beef of Old England. JC.127
M:6/8
L:1/8
Q:80
S:John Clare,Poet,Helpston. (1793-1864)
R:Air
O:England
A:Northamptonshire
N:Rosbif  Mais non !
Z:P Headford
K:D
A|ded cde|fdfe2c|d>"qu"ed cBA|BGEA2|!
|d|BGB dcB|AFDB3|efg cBA|"crot"d3AGF|GAB cAc|"crot"d3d2||
W:Song text exists. See Deacon.
